X: 31
T: Sadegurer Khosid   [Gm]
R: khosidl
D: DRK-204 "Git Azoy" the 12 Corners Klezmer Band
M: 4/4
L: 1/16
K: Gm
   z2D2 \
| "Gm"B3A G2G2 | z2BA GBAG | "D"A3G ^F2F2 | "Cm"^FGFE "D"D4 \
| "D7"^FDFA "Gm"GDGB | "D7"ADAc "Gm"BGBd | "Cm"c2c2 cdec | "D7"d4 dcBA |
| "Gm"B3A G2G2 | z2BA GBAG | "D"A3G ^F2F2 | "Cm"^FGFE "D"D4 \
| "D7"d4 c4 | B4 A4 | "Gm"G2G2 "D7"BAG^F | "Gm"G4 :| [K:G]
|: zDGA \
|: "G"BcBc B2AG | A2B2 z4 | BcBc B2AG | ABG2 z4 \
| "G"BcBc B2AG | A2B2 z4 | "Am"A2A2 "D7"GFEF | "G(m)"G4 z4 :| [K:=f][K:Gm]
|: z4 \
| "Gm"d8 | d8 | d4 d4 | d4 d4 \
| z2d2 d2d2 | "Cm"c2z2 c4 | "Gm"BcBA G^FGA | B2z2 d4 \
| z2d2 d2d2 | "Cm"c2z2 c4 | "Bb"BFFB "Ab"B_AAG | "Gm"G4 z4 :|


